src/assets/images/icons/pension.svg

<?xml version="1.0" encoding="utf-8"?>
<svg width="32" height="33" viewBox="0 0 32 33" fill="none" xmlns="http://www.w3.org/2000/svg">
<path d="M31 0.568359H1C0.448 0.568359 0 1.01636 0 1.56836V23.5684C0 24.1204 0.448 24.5684 1 24.5684H16V20.5684H7.953V19.5684C7.953 17.8584 6.663 16.5684 4.953 16.5684H3.953V8.56836H4.953C6.663 8.56836 7.953 7.27836 7.953 5.56836V4.56836H23.953V5.56836C23.953 7.27836 25.243 8.56836 26.953 8.56836H27.953V14.8074C29.591 15.0844 30.974 15.5914 32 16.2814V1.56836C32 1.01636 31.552 0.568359 31 0.568359Z" fill="#1F3D56"/>
<path d="M22.0491 6.56836H9.85713C9.46913 8.55436 7.93912 10.0844 5.95312 10.4724V14.6634C7.93912 15.0524 9.46913 16.5824 9.85713 18.5684H16.0701C16.6001 16.2844 20.3441 14.5684 24.9991 14.5684C25.3241 14.5684 25.6401 14.5794 25.9521 14.5944V10.4724C23.9671 10.0844 22.4371 8.55436 22.0491 6.56836ZM16.0001 14.5684C14.8951 14.5684 14.0001 13.6734 14.0001 12.5684C14.0001 11.4634 14.8951 10.5684 16.0001 10.5684C17.1051 10.5684 18.0001 11.4634 18.0001 12.5684C18.0001 13.6734 17.1051 14.5684 16.0001 14.5684Z" fill="#1F3D56"/>
<path d="M25 24.5675C22.049 24.5675 19.597 23.9285 18 22.8555V24.5675C18 26.2245 21.134 27.5675 25 27.5675C28.866 27.5675 32 26.2245 32 24.5675V22.8555C30.403 23.9285 27.951 24.5675 25 24.5675Z" fill="#1F3D56"/>
<path d="M25 29.5675C22.049 29.5675 19.597 28.9285 18 27.8555V29.5675C18 31.2245 21.134 32.5675 25 32.5675C28.866 32.5675 32 31.2245 32 29.5675V27.8555C30.403 28.9285 27.951 29.5675 25 29.5675Z" fill="#1F3D56"/>
<path d="M25 22.5684C28.866 22.5684 32 21.2252 32 19.5684C32 17.9115 28.866 16.5684 25 16.5684C21.134 16.5684 18 17.9115 18 19.5684C18 21.2252 21.134 22.5684 25 22.5684Z" fill="#1F3D56"/>
</svg>

<svg width="32" height="33" fill="none" xmlns="http://www.w3.org/2000/svg"><path d="M31 .568H1a1 1 0 00-1 1v22a1 1 0 001 1h15v-4H7.953v-1c0-1.71-1.29-3-3-3h-1v-8h1c1.71 0 3-1.29 3-3v-1h16v1c0 1.71 1.29 3 3 3h1v6.24c1.638.276 3.021.783 4.047 1.473V1.568a1 1 0 00-1-1z" fill="#1F3D56"/><path d="M22.05 6.568H9.856a4.92 4.92 0 01-3.904 3.904v4.191a4.922 4.922 0 013.904 3.905h6.213c.53-2.284 4.274-4 8.93-4 .324 0 .64.011.952.026v-4.122a4.92 4.92 0 01-3.903-3.904zm-6.05 8A2 2 0 1116 10.57 2 2 0 0116 14.568zM25 24.567c-2.951 0-5.403-.639-7-1.712v1.712c0 1.657 3.134 3 7 3s7-1.343 7-3v-1.712c-1.597 1.073-4.049 1.712-7 1.712zM25 29.567c-2.951 0-5.403-.639-7-1.712v1.712c0 1.657 3.134 3 7 3s7-1.343 7-3v-1.712c-1.597 1.073-4.049 1.712-7 1.712zM25 22.568c3.866 0 7-1.343 7-3s-3.134-3-7-3-7 1.343-7 3 3.134 3 7 3z" fill="#1F3D56"/></svg>
